X:11
T:Fisherman's
T:Redican's Mother
R:slip jig
D:Matt Molloy: Heathery Breeze
Z:id:hn-slipjig-11
M:9/8
K:D
FAA FAd AFD|FAA FAd B2A|FAA FAd AFD|EDB DFA B2A:|
|:~f3 faf edB|Aff fef gfe|f3 faf edB|AFE DFA B2A:|
<end>
<start>
